X: 43278
T: Woodchoppers, The
R: reel
M: 4/4
K: Dmajor
|DFAd B2A2|DFAd B2A2|A,CEG Aceg|agec AGFE|
DFAd B2A2|DFAd B2A2|A,CEG Acef|1 gece d2AF:|2 gece d2fg||
|:afdB ABAF|DFAd f2ef|gecB Aefg|a^gab a2fg|
afdB ABAF|DFAd f2ef|gecB Acef|1 gece d2fg:|2 gece d2AF||

